svg/misc/paperclip-note-o.svg

<svg width="416" height="512" viewBox="0 0 416 512" version="1.1" xmlns="http://www.w3.org/2000/svg"><path fill="currentColor" d="M256,512l-204,0c-28.719,0 -52,-23.281 -52,-52l0,-328c0,-28.719 23.281,-52 52,-52l44,0l0,-8c0,-39.765 32.236,-72 72,-72c39.764,0 72,32.236 72,72l0,8l124,0c28.719,0 52,23.281 52,52l0,220l-0.296,0c-1.259,11.755 -6.497,22.793 -14.934,31.23l-113.54,113.54c-8.437,8.437 -19.475,13.675 -31.23,14.934l0,0.296Zm-160,-400l-44,0c-11.071,0.025 -20,8.97 -20,20l0,328c0,11.046 8.954,20 20,20l172,0l0,-96c0,-35.346 28.654,-64 64,-64l96,0l0,-188c0,-11.03 -8.929,-19.975 -20,-20l-236,0l0,152c0,13.255 10.745,24 24,24c13.255,0 24,-10.745 24,-24l0,-120l32,0l0,120c0,30.928 -25.072,56 -56,56c-30.928,0 -56,-25.072 -56,-56l0,-152Zm160,367.218c3.222,-0.929 6.189,-2.662 8.603,-5.076l113.539,-113.539c2.414,-2.414 4.147,-5.381 5.076,-8.603l-95.218,0c-17.673,0 -32,14.327 -32,32l0,95.218Zm-48,-399.218l0,-8c0,-22.091 -17.909,-40 -40,-40c-22.091,0 -40,17.909 -40,40l0,8l80,0Z"></path></svg>

<svg width="416" height="512" viewBox="0 0 416 512" fill="none" xmlns="http://www.w3.org/2000/svg">
<g clip-path="url(#clip0)">
<path fill-rule="evenodd" clip-rule="evenodd" d="M168 0C207.764 0 240 32.2355 240 72V80H364C392.719 80 416 103.281 416 132V352H415.704C414.445 363.755 409.207 374.793 400.77 383.23L287.23 496.77C278.793 505.207 267.755 510.445 256 511.704V512H407.438C396.372 531.13 375.689 544 352 544H224V512H52C23.2812 512 0 488.719 0 460V132C0 103.281 23.2812 80 52 80H96V72C96 32.2355 128.236 0 168 0ZM256 479.218C259.222 478.289 262.189 476.556 264.603 474.142L378.142 360.603C380.556 358.189 382.289 355.222 383.218 352H288C270.327 352 256 366.327 256 384V479.218ZM384 320H288C252.654 320 224 348.654 224 384V480H52C40.9543 480 32 471.046 32 460V132C32 120.954 40.9543 112 52 112H96V264C96 294.928 121.072 320 152 320C182.928 320 208 294.928 208 264V144H176V264C176 277.255 165.255 288 152 288C138.745 288 128 277.255 128 264V112H364C375.046 112 384 120.954 384 132V320ZM128 72V80H208V72C208 49.9086 190.091 32 168 32C145.909 32 128 49.9086 128 72Z" fill="black"/>
</g>
<defs>
<clipPath id="clip0">
<rect width="416" height="512" fill="white"/>
</clipPath>
</defs>
</svg>
